rospo-icon-theme-classic-common/24x24/places/folder-green-owncloud.svg

<svg height="24" width="24" xmlns="http://www.w3.org/2000/svg"><rect height="12" opacity=".2" rx="1" width="20" x="2" y="9.5"/><path d="m2 17c0 .554.446 1 1 1h18c .554 0 1-.446 1-1v-11c0-.554-.446-1-1-1h-10v-1c0-.554-.446-1-1-1h-7c-.554 0-1 .446-1 1" fill="#60924b"/><rect height="12" opacity=".2" rx="1" width="20" x="2" y="8.5"/><rect fill="#e4e4e4" height="8" rx="1" width="16" x="4" y="7"/><rect fill="#87b158" height="12" rx="1" width="20" x="2" y="9"/><path d="m3 3c-.554 0-1 .446-1 1v .5c0-.554.446-1 1-1h7c .554 0 1 .446 1 1v-.5c0-.554-.446-1-1-1zm8 2v .5h10c .554 0 1 .446 1 1v-.5c0-.554-.446-1-1-1z" fill="#fff" opacity=".1"/><g fill="#2f3e1f" stroke="#87b158" stroke-linecap="round" stroke-linejoin="round" stroke-width=".25"><circle cx="13.25" cy="13.25" r="1.625"/><circle cx="17" cy="16.5" r=".875"/><circle cx="15" cy="15.5" r="1.875"/><circle cx="7.75" cy="15.75" r="1.625"/><circle cx="9.25" cy="12.5" r=".875"/><circle cx="9.5" cy="14.5" r="1.875"/><circle cx="9.5" cy="16.5" r=".875"/><circle cx="11.25" cy="12.25" r="1.625"/><circle cx="12" cy="15" r="2.375"/></g></svg>

<svg xmlns="http://www.w3.org/2000/svg" width="24" height="24" version="1">
 <rect style="opacity:0.2" width="20" height="12" x="2" y="9.5" rx="1" ry="1"/>
 <path style="fill:#60924b" d="M 2,17 C 2,17.554 2.446,18 3,18 H 21 C 21.554,18 22,17.554 22,17 V 6 C 22,5.446 21.554,5 21,5 H 11 V 4 C 11,3.446 10.554,3 10,3 H 3 C 2.446,3 2,3.446 2,4"/>
 <rect style="opacity:0.2" width="20" height="12" x="2" y="8.5" rx="1" ry="1"/>
 <rect style="fill:#dcdcdc" width="16" height="8" x="4" y="7" rx="1" ry="1"/>
 <rect style="fill:#87b158" width="20" height="12" x="2" y="9" rx="1" ry="1"/>
 <path style="opacity:0.1;fill:#ffffff" d="M 3,3 C 2.446,3 2,3.446 2,4 V 4.5 C 2,3.946 2.446,3.5 3,3.5 H 10 C 10.554,3.5 11,3.946 11,4.5 V 4 C 11,3.446 10.554,3 10,3 Z M 11,5 V 5.5 H 21 C 21.554,5.5 22,5.946 22,6.5 V 6 C 22,5.446 21.554,5 21,5 Z"/>
 <g>
  <circle style="fill:#2f3e1f;stroke:#87b158;stroke-width:0.25;stroke-linecap:round;stroke-linejoin:round" cx="13.25" cy="13.25" r="1.625"/>
  <circle style="fill:#2f3e1f;stroke:#87b158;stroke-width:0.25;stroke-linecap:round;stroke-linejoin:round" cx="17" cy="16.5" r=".875"/>
  <circle style="fill:#2f3e1f;stroke:#87b158;stroke-width:0.25;stroke-linecap:round;stroke-linejoin:round" cx="15" cy="15.5" r="1.875"/>
  <circle style="fill:#2f3e1f;stroke:#87b158;stroke-width:0.25;stroke-linecap:round;stroke-linejoin:round" cx="7.75" cy="15.75" r="1.625"/>
  <circle style="fill:#2f3e1f;stroke:#87b158;stroke-width:0.25;stroke-linecap:round;stroke-linejoin:round" cx="9.25" cy="12.5" r=".875"/>
  <circle style="fill:#2f3e1f;stroke:#87b158;stroke-width:0.25;stroke-linecap:round;stroke-linejoin:round" cx="9.5" cy="14.5" r="1.875"/>
  <circle style="fill:#2f3e1f;stroke:#87b158;stroke-width:0.25;stroke-linecap:round;stroke-linejoin:round" cx="9.5" cy="16.5" r=".875"/>
  <circle style="fill:#2f3e1f;stroke:#87b158;stroke-width:0.25;stroke-linecap:round;stroke-linejoin:round" cx="11.25" cy="12.25" r="1.625"/>
  <circle style="fill:#2f3e1f;stroke:#87b158;stroke-width:0.25;stroke-linecap:round;stroke-linejoin:round" cx="12" cy="15" r="2.375"/>
 </g>
</svg>
